X: 13
T:POLKA AUX FRERES LAMBERT
M:2/4
L:1/8
Q:160
C:trad. Bresse / Jura
K:C
e2g2|c2e2|dcde|f4|d2f2|B2d2|cBcd|1e2c2:|2c4||
|:e2f2|g2a2|gfed|e2c2|e2f2|g2a2|gfed|c4:|
